teeny/outline/indent-decrease.svg

<svg width="15" height="15" viewBox="0 0 15 15" fill="none" xmlns="http://www.w3.org/2000/svg">
<path d="M0.5 7.5L0.146447 7.14645C-0.0488155 7.34171 -0.0488155 7.65829 0.146447 7.85355L0.5 7.5ZM3 4H15V3H3V4ZM7 8H15V7H7V8ZM3 12H15V11H3V12ZM2.85355 9.14645L0.853553 7.14645L0.146447 7.85355L2.14645 9.85355L2.85355 9.14645ZM0.853553 7.85355L2.85355 5.85355L2.14645 5.14645L0.146447 7.14645L0.853553 7.85355Z" fill="black"/>
</svg>

<svg viewBox="0 0 15 15" xmlns="http://www.w3.org/2000/svg"><path d="M.5 7.5l-.36-.36c-.2.19-.2.51 0 .7l.35-.36ZM3 4h12V3H3v1Zm4 4h8V7H7v1Zm-4 4h12v-1H3v1Zm-.15-2.86l-2-2 -.71.7 2 2 .7-.71Zm-2-1.3l1.99-2 -.71-.71 -2.01 2 .7.7Z"/></svg>
